frontend/public/favicon/favicon.svg

<svg width="32" height="32" viewBox="0 0 32 32" fill="none" xmlns="http://www.w3.org/2000/svg">
<path fill-rule="evenodd" clip-rule="evenodd" d="M32 16C32 24.8366 24.8366 32 16 32C7.16344 32 0 24.8366 0 16C0 7.16344 7.16344 0 16 0C24.8366 0 32 7.16344 32 16ZM21.9733 12.0615L21.9733 12.0856V12.0616H16.6363C16.5861 11.4007 16.0339 10.88 15.3601 10.88C14.6531 10.88 14.0801 11.4531 14.0801 12.16C14.0801 12.7942 14.5413 13.3207 15.1466 13.4223V18.3631C11.3764 18.3631 8.32 15.5418 8.32 12.0615C8.32 8.5813 11.3764 5.76 15.1467 5.76C18.9169 5.76 21.9733 8.5813 21.9733 12.0615ZM10.0267 19.9147L10.0267 19.9385C10.0267 23.4187 13.0831 26.24 16.8534 26.24C20.6236 26.24 23.68 23.4187 23.68 19.9385C23.68 16.4582 20.6236 13.6369 16.8534 13.6369L16.8534 18.5777C17.4588 18.6793 17.92 19.2058 17.92 19.84C17.92 20.5469 17.3469 21.12 16.64 21.12C15.9662 21.12 15.414 20.5993 15.3637 19.9384H10.0267V19.9147Z" fill="black"/>
</svg>

<svg width="288" height="288" xmlns="http://www.w3.org/2000/svg"><svg xmlns="http://www.w3.org/2000/svg" fill="none" viewBox="0 0 32 32" width="288" height="288"><path fill="#fff" fill-rule="evenodd" d="M32 16c0 8.837-7.163 16-16 16S0 24.837 0 16 7.163 0 16 0s16 7.163 16 16Zm-10.027-3.938v.024-.024h-5.337a1.28 1.28 0 1 0-1.49 1.36v4.941c-3.77 0-6.826-2.821-6.826-6.301s3.056-6.302 6.827-6.302c3.77 0 6.826 2.821 6.826 6.302Zm-11.946 7.853v.024c0 3.48 3.056 6.301 6.826 6.301 3.77 0 6.827-2.821 6.827-6.301s-3.056-6.302-6.827-6.302v4.94a1.28 1.28 0 1 1-1.49 1.361h-5.336v-.023Z" clip-rule="evenodd" class="color000 svgShape"/></svg></svg>
